X: 35
M: 6/8
L: 1/16
K: Bm
(BA) | F2 B2 c2 d4 c B |
(cd) (ed) (cB) A2 B2 c2 | d2 f2 d2
{f}e2 (dc) (BA) | F2 B2 B2 B4 (BA) | F2 B2 c2
d4 c B | (cd) (ed) (cB) A2 B2 c2 | a3 g f2
e2 c2 A2 | F2 B2 B2 B4 ][ (Bc) |
d2 f2 f2 f4 (ed) | c2 e2 e2 e4 a2 |
f2 b2 ^a2 b2 c'2 d'2 | f2 b2 ^a2 b4 (bc') |
d'2 c'2 b2 a2 g2 f2 | {f}e2 (dc) a2 A2 B2 c2 |
d2 f2 d2 (fe) (dc) (BA) | F2 B2 B2 B4 |]
K:

